img/twitter.svg

<svg width="30" height="30" viewBox="0 0 30 30" fill="none" xmlns="http://www.w3.org/2000/svg">
<circle cx="15" cy="15" r="15" fill="#09E079"/>
<path d="M24.7026 9.11415C24.0067 9.42248 23.2592 9.63082 22.4734 9.72498C23.2842 9.23981 23.8908 8.4762 24.1801 7.57665C23.4183 8.02914 22.5845 8.34765 21.7151 8.51832C21.1304 7.89404 20.3559 7.48025 19.512 7.34121C18.668 7.20217 17.8018 7.34564 17.0477 7.74936C16.2937 8.15308 15.694 8.79445 15.3418 9.5739C14.9897 10.3534 14.9047 11.2273 15.1001 12.06C13.5565 11.9825 12.0464 11.5813 10.6679 10.8824C9.2894 10.1835 8.07325 9.20262 7.09838 8.00332C6.76505 8.57832 6.57338 9.24498 6.57338 9.95498C6.57301 10.5941 6.73041 11.2235 7.03162 11.7873C7.33282 12.351 7.76852 12.8317 8.30005 13.1866C7.68361 13.167 7.08078 13.0005 6.54172 12.7008V12.7508C6.54166 13.6473 6.85174 14.5161 7.41937 15.21C7.98699 15.9038 8.77719 16.3799 9.65588 16.5575C9.08404 16.7122 8.4845 16.735 7.90255 16.6241C8.15047 17.3955 8.63338 18.07 9.28369 18.5533C9.934 19.0365 10.7191 19.3043 11.5292 19.3191C10.1541 20.3987 8.45579 20.9842 6.70755 20.9816C6.39787 20.9817 6.08845 20.9636 5.78088 20.9275C7.55545 22.0685 9.62117 22.674 11.7309 22.6716C18.8726 22.6716 22.7767 16.7566 22.7767 11.6266C22.7767 11.46 22.7726 11.2916 22.7651 11.125C23.5245 10.5758 24.18 9.89573 24.7009 9.11665L24.7026 9.11415Z" fill="white"/>
</svg>

<svg width="30" height="30" fill="currentColor" xmlns="http://www.w3.org/2000/svg"><circle cx="15" cy="15" r="15"/><path d="M24.703 9.114a7.775 7.775 0 0 1-2.23.611 3.892 3.892 0 0 0 1.707-2.148 7.75 7.75 0 0 1-2.465.941A3.884 3.884 0 0 0 15.1 12.06a11.024 11.024 0 0 1-8.002-4.057A3.884 3.884 0 0 0 8.3 13.186a3.872 3.872 0 0 1-1.758-.485v.05a3.883 3.883 0 0 0 3.114 3.807 3.91 3.91 0 0 1-1.753.066 3.884 3.884 0 0 0 3.626 2.695 7.79 7.79 0 0 1-4.821 1.663c-.31 0-.62-.018-.927-.055a10.979 10.979 0 0 0 5.95 1.745c7.142 0 11.046-5.915 11.046-11.045 0-.167-.004-.335-.012-.502a7.892 7.892 0 0 0 1.936-2.008l.002-.003Z" fill="#fff"/></svg>
